src/lib/packages/icons/src/assets/line/delete-left.svg

<svg width="24" height="24" viewBox="0 0 24 24" fill="none" xmlns="http://www.w3.org/2000/svg">
<path d="M18 5.25H9C8.407 5.25 7.82694 5.49 7.40894 5.909L2.90894 10.409C2.48394 10.834 2.25 11.399 2.25 12C2.25 12.601 2.48394 13.166 2.90894 13.591L7.40894 18.091C7.82694 18.51 8.407 18.75 9 18.75H18C20.418 18.75 21.75 17.418 21.75 15V9C21.75 6.582 20.418 5.25 18 5.25ZM20.25 15C20.25 16.577 19.577 17.25 18 17.25H9C8.803 17.25 8.60897 17.17 8.46997 17.03L3.96997 12.53C3.82797 12.388 3.75 12.2 3.75 12C3.75 11.8 3.82797 11.612 3.96997 11.47L8.46997 6.97C8.60997 6.831 8.803 6.75101 9 6.75101H18C19.577 6.75101 20.25 7.42401 20.25 9.00101V15ZM16.53 10.53L15.0601 12L16.53 13.47C16.823 13.763 16.823 14.238 16.53 14.531C16.384 14.677 16.192 14.751 16 14.751C15.808 14.751 15.616 14.678 15.47 14.531L14 13.061L12.53 14.531C12.384 14.677 12.192 14.751 12 14.751C11.808 14.751 11.616 14.678 11.47 14.531C11.177 14.238 11.177 13.763 11.47 13.47L12.9399 12L11.47 10.53C11.177 10.237 11.177 9.76199 11.47 9.46899C11.763 9.17599 12.238 9.17599 12.531 9.46899L14.001 10.939L15.4709 9.46899C15.7639 9.17599 16.239 9.17599 16.532 9.46899C16.823 9.76199 16.823 10.238 16.53 10.53Z" fill="currentColor"/>
</svg>

<svg xmlns="http://www.w3.org/2000/svg" width="24" height="24" fill="none"><path fill="currentColor" d="M18 5.25H9c-.593 0-1.173.24-1.591.659l-4.5 4.5c-.425.425-.659.99-.659 1.591s.234 1.166.659 1.591l4.5 4.5c.418.419.998.659 1.591.659h9c2.418 0 3.75-1.332 3.75-3.75V9c0-2.418-1.332-3.75-3.75-3.75ZM20.25 15c0 1.577-.673 2.25-2.25 2.25H9a.753.753 0 0 1-.53-.22l-4.5-4.5a.744.744 0 0 1 0-1.06l4.5-4.5A.758.758 0 0 1 9 6.751h9c1.577 0 2.25.673 2.25 2.25V15Zm-3.72-4.47L15.06 12l1.47 1.47a.75.75 0 0 1-1.06 1.061L14 13.061l-1.47 1.47a.748.748 0 0 1-1.06 0 .75.75 0 0 1 0-1.061L12.94 12l-1.47-1.47a.75.75 0 1 1 1.061-1.061l1.47 1.47 1.47-1.47a.75.75 0 1 1 1.059 1.061Z"/></svg>
